static/images/mobile/copyright/wikipedia-wordmark-bm.svg

<?xml version="1.0" encoding="UTF-8"?>
<svg width="104px" height="18px" viewBox="0 0 104 18" version="1.1" xmlns="http://www.w3.org/2000/svg" xmlns:xlink="http://www.w3.org/1999/xlink">
    <title>bm-wordmark</title>
    <g id="Page-1" stroke="none" stroke-width="1" fill="none" fill-rule="evenodd">
        <path d="M27.3955133,5.48050255 L27.7370343,5.48694753 C28.1353732,5.4941276 28.5242508,5.49984175 28.8080874,5.5011581 L28.923022,5.50144444 C29.6438234,5.50144444 31.6994424,5.44944444 31.6994424,5.44944444 L31.7261387,5.50144444 L31.7261387,6.07344444 C31.7261387,6.15144444 31.672746,6.20344444 31.5659606,6.20344444 L31.0053373,6.25644444 C30.1777504,6.33344444 29.8840906,6.54244444 29.8840906,7.06344444 L29.8840906,15.7214444 C29.8840906,16.2934444 30.1510541,16.6314444 31.0053373,16.7094444 L31.5659606,16.7624444 C31.6460497,16.7624444 31.7261387,16.8134444 31.7261387,16.9174444 L31.7261387,17.4634444 L31.6994424,17.5164444 C31.6994424,17.5164444 29.8507753,17.4681531 28.9629286,17.463763 L28.8429329,17.4634444 C28.0954351,17.4634444 26.0131198,17.5164444 26.0131198,17.5164444 L25.9597271,17.4634444 L25.9597271,16.9174444 C25.9597271,16.8134444 26.0398161,16.7624444 26.1466015,16.7624444 L26.6805285,16.7094444 C27.5615081,16.6314444 27.8284716,16.2154444 27.8284716,15.7214444 L27.8284716,7.06344444 C27.8284716,6.49244444 27.5070886,6.33444444 26.6805285,6.25844444 L26.1466015,6.20444444 C26.0398161,6.20444444 25.9597271,6.18044444 25.9597271,6.10044444 L25.9597271,5.50144444 L25.9864234,5.44944444 C25.9864234,5.44944444 26.6601909,5.46605692 27.3955133,5.48050255 Z M18.1648645,0.000828060009 C18.2314829,0.000919904693 18.2971514,0.00101707965 18.3616658,0.00111835481 L18.7332697,0.00176536781 C18.792351,0.00187812356 18.8498699,0.0019925194 18.905622,0.00210732525 L19.2173017,0.00279124013 C19.2651705,0.00290276582 19.3108643,0.0030122414 19.3541788,0.00311843682 L19.6742572,0.00395241935 C19.7014587,0.0040278632 19.7256683,0.00409633669 19.746682,0.00415660976 L19.844,0.00444444444 L19.901,0.0574444444 L19.901,0.553444444 C19.901,0.690444444 19.824,0.758444444 19.672,0.758444444 C18.926,0.793444444 18.773,0.867444444 18.5,1.26044444 C18.351,1.47544444 18.057,1.93644444 17.752,2.45344444 L17.752,2.45344444 L15.134,7.34944444 C15.134,7.34944444 15.1085922,7.40252268 15.0613999,7.50091772 L18.26,14.0494444 L18.454,14.1024444 L23.494,2.14144444 C23.669,1.65944444 23.642,1.31744444 23.417,1.11644444 C23.191,0.920444444 23.032,0.804444444 22.448,0.780444444 L21.975,0.756444444 C21.917,0.756444444 21.862,0.735444444 21.809,0.696444444 C21.757,0.659444444 21.73,0.610444444 21.73,0.551444444 L21.73,0.0534444444 L21.802,0.00244444444 L27.496,0.00244444444 L27.496,0.00244444444 L27.554,0.0534444444 L27.554,0.551444444 C27.554,0.686444444 27.477,0.754444444 27.325,0.754444444 C26.579,0.787444444 26.026,0.949444444 25.668,1.23844444 C25.309,1.52944444 25.029,1.93044444 24.828,2.45144444 C24.828,2.45144444 20.193,13.0604444 18.607,16.5864444 C18,17.7424444 17.403,17.6364444 16.878,16.5534444 C16.4479796,15.6678118 15.7151462,14.0837847 14.9789897,12.4761337 L14.746758,11.9684561 C14.4361842,11.2888496 14.1306658,10.6177409 13.8529336,10.0063434 C12.7808262,12.218008 11.3122659,15.2166478 10.584,16.5674444 C9.876,17.7984444 9.293,17.6374444 8.829,16.5994444 C7.218,12.7984444 3.91,6.12444444 2.353,2.38444444 C2.065,1.69544444 1.848,1.25344444 1.643,1.07844444 C1.437,0.905444444 1.009,0.801444444 0.358,0.766444444 C0.119,0.740444444 0,0.682444444 0,0.588444444 L0,0.588444444 L0,0.0674444444 L0.058,0.0164444444 C0.0891764706,0.0162679739 0.123873702,0.0161018839 0.161857623,0.0159457166 L0.427328821,0.0151241208 C0.477523204,0.0150058122 0.530536129,0.0148965104 0.586133523,0.0147957573 L1.14997079,0.0141074304 C1.21896835,0.0140538481 1.28984816,0.0140074406 1.36237614,0.01396775 L3.04745909,0.0139645442 C3.131592,0.0139964493 3.21573458,0.0140318656 3.29965276,0.0140703349 L4.73538449,0.0149935997 C4.80818319,0.0150522197 4.87935304,0.015111145 4.94865998,0.0151699177 L5.81928638,0.015982812 C5.86411235,0.0160286089 5.90590505,0.0160719633 5.94443039,0.0161124172 L6.248,0.0164444444 L6.306,0.0674444444 L6.306,0.563444444 C6.306,0.700444444 6.219,0.766444444 6.048,0.766444444 L6.048,0.766444444 L5.402,0.793444444 C4.848,0.816444444 4.571,0.982444444 4.571,1.28944444 C4.571,1.43244444 4.629,1.66444444 4.758,1.97744444 C5.998,4.99844444 10.281,14.0294444 10.281,14.0294444 L10.281,14.0294444 L10.438,14.0704444 L13.1983758,8.56281018 C12.8610712,7.81762295 12.646,7.34044444 12.646,7.34044444 L10.748,3.61044444 C10.748,3.61044444 10.5848889,3.27888889 10.4391111,2.98437037 L10.2919392,2.68809954 C10.2785139,2.66123611 10.2664167,2.63711111 10.256,2.61644444 C9.422,0.963444444 9.44,0.875444444 8.597,0.764444444 C8.361,0.733444444 8.239,0.703444444 8.239,0.586444444 L8.239,0.0634444444 L8.31,0.0124444444 L8.63792296,0.0120705185 C8.69620444,0.0120124444 8.75617,0.0119564444 8.817625,0.0119024444 L10.2603704,0.011037037 C10.3331407,0.0110074074 10.4060381,0.0109792593 10.478868,0.0109525185 L13.222,0.0104444444 L13.222,0.0104444444 L13.352,0.0534444444 L13.352,0.574444444 C13.352,0.693444444 13.267,0.754444444 13.094,0.754444444 L12.738,0.805444444 C11.838,0.875444444 11.985,1.24344444 12.583,2.43444444 L14.404,6.16 L16.418,2.14344444 C16.7309286,1.46094444 16.6937857,1.25354138 16.5755918,1.091283 L16.547,1.05444444 C16.467,0.958444444 16.199,0.805444444 15.616,0.781444444 L15.616,0.781444444 L15.387,0.756444444 C15.329,0.756444444 15.275,0.736444444 15.222,0.697444444 C15.17,0.660444444 15.144,0.612444444 15.144,0.551444444 L15.144,0.551444444 L15.144,0.0554444444 L15.215,0.00444444444 C15.4608621,0.00272030651 15.7595482,0.0015906989 16.0855345,0.000901863773 Z M37.7625942,15.7214444 C37.7625942,16.2934444 38.1096468,16.5794444 38.8838409,16.7094444 L39.1775008,16.7624444 C39.2575898,16.7874444 39.3376789,16.8134444 39.3376789,16.9174444 L39.3376789,17.4634444 L39.3109825,17.5164444 C39.3109825,17.5164444 37.6291125,17.4634444 36.828222,17.4634444 C36.0807242,17.4634444 33.8916234,17.5164444 33.8916234,17.5164444 L33.8382307,17.4634444 L33.8382307,16.9174444 C33.8382307,16.8134444 33.9183198,16.7624444 34.0251052,16.7624444 L34.5590322,16.7094444 C35.3599227,16.6314444 35.7069753,16.2154444 35.7069753,15.7214444 L35.7069753,7.06344444 C35.7069753,6.49244444 35.4133154,6.33444444 34.5590322,6.25844444 L34.0251052,6.20444444 C33.9183198,6.20444444 33.8382307,6.18044444 33.8382307,6.10044444 L33.8382307,5.50144444 L33.8649271,5.44944444 C33.8649271,5.44944444 36.0540278,5.50144444 36.8816147,5.50144444 C37.6301392,5.50144444 39.3109825,5.44944444 39.3109825,5.44944444 L39.3376789,5.50144444 L39.3376789,6.07344444 C39.3376789,6.15144444 39.2842862,6.17744444 39.1775008,6.20344444 L38.8838409,6.25644444 C38.0562541,6.41144444 37.7625942,6.54244444 37.7625942,7.06344444 L37.7625942,10.9894444 C38.6435738,10.9894444 39.1508044,10.5484444 40.3254438,9.32544444 C41.3932978,8.18044444 42.2208847,7.22044444 42.2208847,6.72544444 C42.2208847,6.51644444 41.9806175,6.28344444 41.4466905,6.20444444 C41.3399051,6.17944444 41.2865124,6.15244444 41.2865124,6.07444444 L41.2865124,5.47544444 L41.3132088,5.45044444 C41.3132088,5.45044444 43.4756132,5.50244444 44.2498073,5.50244444 C44.9439124,5.50244444 46.1185518,5.45044444 46.1185518,5.45044444 L46.1986409,5.47544444 L46.1986409,6.07444444 C46.1986409,6.15244444 46.1185518,6.20444444 45.9850701,6.20444444 C44.9439124,6.28244444 44.223111,6.33444444 43.2620424,7.40044444 L40.9661562,9.97344444 C40.5123183,10.4424444 40.3521402,10.7274444 40.3521402,10.9364444 C40.3521402,11.0924444 40.4589256,11.2214444 40.5924073,11.3774444 L44.6235562,16.1094444 C44.9439124,16.4724444 45.5846248,16.6294444 46.1185518,16.7324444 L46.2520336,16.7574444 C46.3321226,16.7834444 46.438908,16.8354444 46.438908,16.9134444 L46.438908,17.4594444 L46.358819,17.4854444 C46.358819,17.4854444 44.9439124,17.4594444 44.1964146,17.4594444 C43.5290059,17.4594444 42.5679373,17.4854444 42.5679373,17.4854444 L42.5412409,17.4594444 L42.5412409,17.1474444 C42.5412409,16.8084444 42.5145446,16.5244444 42.1407956,16.1084444 L39.1775008,12.5194444 C38.7770555,11.9984444 38.3499139,11.8704444 37.7625942,11.8704444 L37.7625942,15.7214444 L37.7625942,15.7214444 L37.7625942,15.7214444 Z M52.1550073,15.7214444 C52.1550073,16.2934444 52.4219708,16.6314444 53.276254,16.7094444 L53.8368774,16.7624444 C53.9169664,16.7624444 53.9970555,16.8134444 53.9970555,16.9174444 L53.9970555,17.4634444 L53.9703591,17.5164444 C53.9703591,17.5164444 51.9414365,17.4634444 51.1138497,17.4634444 C50.3663519,17.4634444 48.2840365,17.5164444 48.2840365,17.5164444 L48.2306438,17.4634444 L48.2306438,16.9174444 C48.2306438,16.8134444 48.3107329,16.7624444 48.4175183,16.7624444 L48.9514453,16.7094444 C49.8324249,16.6314444 50.0993884,16.2154444 50.0993884,15.7214444 L50.0993884,7.06344444 C50.0993884,6.49244444 49.7790322,6.33444444 48.9514453,6.25844444 L48.4175183,6.20444444 C48.3107329,6.20444444 48.2306438,6.18044444 48.2306438,6.10044444 L48.2306438,5.50144444 L48.2573402,5.44944444 C48.2573402,5.44944444 50.3663519,5.50144444 51.1939387,5.50144444 C51.9147402,5.50144444 53.9703591,5.44944444 53.9703591,5.44944444 L53.9970555,5.50144444 L53.9970555,6.07344444 C53.9970555,6.15144444 53.9436628,6.20344444 53.8368774,6.20344444 L53.276254,6.25644444 C52.4486672,6.33344444 52.1550073,6.54244444 52.1550073,7.06344444 L52.1550073,15.7214444 L52.1550073,15.7214444 Z M57.9234725,7.11444444 C57.9234725,6.30844444 57.57642,6.28244444 56.3216915,6.20444444 C56.1615134,6.20444444 56.1348171,6.12744444 56.1348171,6.07444444 L56.1348171,5.47644444 L56.1882098,5.45044444 C56.588655,5.45044444 58.1637397,5.50244444 58.9379338,5.50244444 C59.6854316,5.50244444 60.7532857,5.45044444 61.7410506,5.45044444 C65.5298788,5.45044444 66.2239839,7.26944444 66.2239839,8.62344444 C66.2239839,10.1844444 65.4497897,12.6274444 61.6609616,12.6274444 C60.9935528,12.6274444 60.4596258,12.5744444 59.9780647,12.3674444 L59.9780647,15.8494444 C59.9780647,16.4214444 60.2984209,16.5524444 61.1537309,16.6814444 L61.6886847,16.7594444 C61.7954701,16.7854444 61.8755591,16.8124444 61.8755591,16.9154444 L61.8755591,17.4614444 L61.8498896,17.5134444 C61.8498896,17.5134444 59.7141816,17.4614444 58.8865947,17.4614444 C58.1390969,17.4614444 56.1368706,17.5134444 56.1368706,17.5134444 L56.1101743,17.4614444 L56.1101743,16.9154444 C56.1101743,16.8114444 56.163567,16.7854444 56.2703524,16.7594444 L56.8309757,16.6814444 C57.6585626,16.5774444 57.9255261,16.3434444 57.9255261,15.8494444 L57.9234725,7.11444444 L57.9234725,7.11444444 L57.9234725,7.11444444 Z M59.9790915,11.6394444 C60.5130185,11.8484444 61.1804273,11.8734444 61.7143543,11.8734444 C63.3171621,11.8734444 64.0882759,10.9354444 64.0882759,8.93544444 C64.0882759,6.69944444 63.0471182,6.20544444 61.5808725,6.20544444 C60.2984209,6.20544444 59.9780647,6.43944444 59.9780647,7.11544444 L59.9790915,11.6394444 L59.9790915,11.6394444 L59.9790915,11.6394444 Z M70.8219168,17.4634444 C70.0210263,17.4634444 68.1800049,17.5164444 68.1800049,17.5164444 L68.1522818,17.4634444 L68.1522818,16.8914444 C68.1522818,16.8404444 68.1800049,16.7624444 68.3124599,16.7624444 L68.9275027,16.7094444 C69.7561164,16.6314444 69.9963835,16.1114444 69.9963835,15.5924444 L69.9963835,7.01244444 C69.9963835,6.41244444 69.6750005,6.30944444 68.9275027,6.25844444 L68.3124599,6.20444444 C68.1522818,6.18044444 68.1522818,6.12744444 68.1522818,6.10044444 L68.1522818,5.50144444 L68.1800049,5.44944444 C68.1800049,5.44944444 70.2612935,5.50144444 71.062184,5.50144444 L74.9865474,5.50144444 C75.7874379,5.50144444 77.6839056,5.44944444 77.6839056,5.44944444 L77.7383251,5.50144444 C77.7639946,6.61944444 77.9508691,7.63544444 78.1387703,8.62244444 L77.4723884,8.72644444 C77.1797553,7.76344444 76.6725246,6.38644444 74.9639582,6.38644444 L72.8282502,6.38644444 C72.3210195,6.38644444 72.054056,6.56844444 72.054056,7.00944444 L72.054056,10.7804444 L74.0552555,10.7804444 C74.8037801,10.7804444 74.9896278,10.4684444 75.09744,9.94844444 L75.2565913,9.40244444 C75.2565913,9.32444444 75.3110108,9.27144444 75.4167694,9.27144444 L75.8695806,9.27144444 C75.924,9.27144444 75.924,9.29844444 75.924,9.34944444 C75.8695806,9.92144444 75.7638219,10.6504444 75.7638219,11.2744444 C75.7638219,11.9234444 75.8706073,12.4704444 75.924,13.0684444 L75.8695806,13.1214444 L75.4167694,13.1214444 C75.2843144,13.1214444 75.2288682,13.0684444 75.2288682,12.9904444 L75.0953864,12.4194444 C74.988601,11.8984444 74.7483339,11.6124444 74.0521752,11.6124444 L72.0520025,11.6124444 L72.0520025,15.5914444 C72.0520025,16.0844444 72.3436088,16.5784444 72.8261966,16.5784444 L75.3623499,16.5784444 C76.7238638,16.5784444 77.4723884,15.7464444 77.7917178,14.3934444 L78.4580997,14.4714444 L77.923146,17.4604444 L77.8697533,17.5124444 C77.8697533,17.5124444 76.2946686,17.4604444 75.4937781,17.4604444 L70.8219168,17.4634444 L70.8219168,17.4634444 Z M80.861798,16.7624444 L81.4758141,16.7094444 C82.2777314,16.6314444 82.5446949,16.3974444 82.5446949,15.5924444 L82.5446949,7.01244444 C82.5446949,6.33444444 82.3557669,6.33444444 81.4758141,6.25844444 L80.890548,6.20444444 C80.7837626,6.20444444 80.7016199,6.15244444 80.7016199,6.07444444 L80.7016199,5.50244444 L80.7272895,5.45044444 C80.7272895,5.45044444 83.0775951,5.50244444 83.5591562,5.50244444 C84.0643333,5.50244444 86.3889693,5.45044444 87.0830744,5.45044444 C91.5413649,5.45044444 93.7314924,8.15444444 93.7314924,11.6124444 C93.7314924,16.1634444 90.4201182,17.5134444 87.4578501,17.5134444 C85.3221421,17.5134444 84.3887966,17.4614444 83.5612098,17.4614444 C82.7592925,17.4614444 80.7303699,17.5134444 80.7303699,17.5134444 L80.7036735,17.4614444 L80.7036735,16.9154444 C80.7016199,16.8404444 80.7560394,16.7624444 80.861798,16.7624444 L80.861798,16.7624444 Z M86.8161109,16.7624444 C89.7516827,16.7624444 91.4089099,15.6974444 91.4089099,12.0554444 C91.4089099,9.35244444 90.7938671,6.20444444 86.3088803,6.20444444 C85.2677226,6.20444444 84.6003139,6.36044444 84.6003139,7.01244444 L84.6003139,15.5924444 C84.6003139,16.3184444 84.7861615,16.7624444 86.8161109,16.7624444 Z M100.85491,14.9824844 C100.85491,15.8145344 101.17421,16.3061944 102.19593,16.4196544 L102.86642,16.4967544 C102.96221,16.4967544 103.058,16.5709444 103.058,16.7222244 L103.058,17.5164444 L103.02606,17.5935444 C103.02606,17.5935444 100.5995,17.5164444 99.61093,17.5164444 C98.71571,17.5164444 96.2265,17.5935444 96.2265,17.5935444 L96.16142,17.5164444 L96.16142,16.7222244 C96.16142,16.5709444 96.25721,16.4967544 96.38491,16.4967544 L97.02472,16.4196544 C98.07714,16.3061944 98.39765,15.7010744 98.39765,14.9824844 L98.39765,2.38831444 C98.39765,1.55772444 98.01328,1.32789444 97.02472,1.21733444 L96.38491,1.13878444 C96.25721,1.13878444 96.16142,1.10387444 96.16142,0.987504444 L96.16142,0.116184444 L96.19334,0.0405444444 C96.19334,0.0405444444 98.71571,0.116184444 99.70303,0.116184444 C100.56511,0.116184444 103.02484,0.0405444444 103.02484,0.0405444444 L103.05555,0.116184444 L103.05555,0.948234444 C103.05555,1.06169444 102.99045,1.13733444 102.86396,1.13733444 L102.19347,1.21443444 C101.20368,1.32643444 100.85246,1.63045444 100.85246,2.38831444 L100.85491,14.9824844 L100.85491,14.9824844 L100.85491,14.9824844 Z" id="bm-wordmark" fill="#000000" fill-rule="nonzero"></path>
    </g>
</svg>

<svg xmlns="http://www.w3.org/2000/svg" width="104" height="18"><path fill="#000" fill-rule="nonzero" d="m27.396 5.48.341.007c.398.007.787.013 1.071.014h.115c.72 0 2.776-.052 2.776-.052l.027.052v.572c0 .078-.053.13-.16.13l-.56.053c-.828.077-1.122.286-1.122.807v8.658c0 .572.267.91 1.121.988l.561.053c.08 0 .16.051.16.155v.546l-.027.053s-1.848-.048-2.736-.052h-.12c-.748 0-2.83.052-2.83.052l-.053-.053v-.546c0-.104.08-.155.187-.155l.534-.053c.88-.078 1.147-.494 1.147-.988V7.063c0-.57-.32-.729-1.147-.805l-.534-.054c-.107 0-.187-.024-.187-.104v-.599l.026-.052s.674.017 1.41.032ZM18.165 0l.197.001h.371l.173.001h.311l.137.001.32.001H19.844l.057.053v.496c0 .137-.077.205-.229.205-.746.035-.899.11-1.172.502-.149.215-.443.676-.748 1.193L15.134 7.35l-.073.152 3.199 6.548.194.053 5.04-11.96c.175-.483.148-.825-.077-1.026-.226-.196-.385-.312-.969-.336l-.473-.024a.277.277 0 0 1-.166-.06.172.172 0 0 1-.079-.145V.053l.072-.05h5.694l.058.05v.498c0 .135-.077.203-.229.203-.746.033-1.299.195-1.657.484-.359.291-.639.692-.84 1.213 0 0-4.635 10.61-6.221 14.135-.607 1.156-1.204 1.05-1.729-.033-.43-.885-1.163-2.47-1.899-4.077l-.232-.508-.894-1.962c-1.072 2.212-2.54 5.21-3.269 6.561-.708 1.231-1.291 1.07-1.755.032C7.218 12.8 3.91 6.124 2.353 2.384c-.288-.689-.505-1.13-.71-1.306C1.437.905 1.009.801.358.766.119.74 0 .682 0 .588v-.52L.058.015h.369l.16-.001h.563l.212-.001H3.3l1.435.001h.214l.87.001h.429l.058.051v.496c0 .137-.087.203-.258.203l-.646.027c-.554.023-.831.19-.831.496 0 .143.058.375.187.688 1.24 3.021 5.523 12.052 5.523 12.052l.157.041 2.76-5.507-.552-1.223-1.898-3.73-.309-.626-.147-.296a24 24 0 0 0-.036-.072C9.422.963 9.44.876 8.597.764c-.236-.03-.358-.06-.358-.178V.063l.071-.05h.328l.18-.001L10.26.01H13.222l.13.042v.521c0 .12-.085.18-.258.18l-.356.051c-.9.07-.753.438-.155 1.63l1.821 3.725 2.014-4.017c.313-.682.276-.89.158-1.052l-.029-.037c-.08-.096-.348-.249-.931-.273l-.229-.025a.273.273 0 0 1-.165-.059.17.17 0 0 1-.078-.146V.055l.071-.05.87-.004Zm19.598 15.721c0 .572.347.858 1.12.988l.295.053c.08.025.16.051.16.155v.546l-.027.053s-1.682-.053-2.483-.053c-.747 0-2.936.053-2.936.053l-.054-.053v-.546c0-.104.08-.155.187-.155l.534-.053c.8-.078 1.148-.494 1.148-.988V7.063c0-.57-.294-.729-1.148-.805l-.534-.054c-.107 0-.187-.024-.187-.104v-.599l.027-.052s2.189.052 3.017.052c.748 0 2.429-.052 2.429-.052l.027.052v.572c0 .078-.054.104-.16.13l-.294.053c-.828.155-1.121.286-1.121.807v3.926c.88 0 1.388-.44 2.562-1.664 1.068-1.145 1.896-2.105 1.896-2.6 0-.209-.24-.442-.774-.52-.107-.026-.16-.053-.16-.13v-.6l.026-.025s2.163.052 2.937.052c.694 0 1.869-.052 1.869-.052l.08.025v.6c0 .077-.08.13-.214.13-1.041.077-1.762.13-2.723 1.195l-2.296 2.573c-.454.47-.614.754-.614.963 0 .156.107.285.24.441l4.032 4.732c.32.363.96.52 1.495.623l.133.025c.08.026.187.078.187.156v.546l-.08.026s-1.415-.026-2.163-.026c-.667 0-1.628.026-1.628.026l-.027-.026v-.312c0-.339-.026-.623-.4-1.039l-2.963-3.589c-.4-.52-.828-.649-1.415-.649v3.851Zm14.392 0c0 .572.267.91 1.121.988l.56.053c.081 0 .161.051.161.155v.546l-.027.053s-2.029-.053-2.856-.053c-.748 0-2.83.053-2.83.053l-.053-.053v-.546c0-.104.08-.155.187-.155l.533-.053c.881-.078 1.148-.494 1.148-.988V7.063c0-.57-.32-.729-1.148-.805l-.533-.054c-.107 0-.187-.024-.187-.104v-.599l.026-.052s2.11.052 2.937.052c.72 0 2.776-.052 2.776-.052l.027.052v.572c0 .078-.053.13-.16.13l-.56.053c-.828.077-1.122.286-1.122.807v8.658Zm5.768-8.607c0-.806-.347-.832-1.601-.91-.16 0-.187-.077-.187-.13v-.598l.053-.026c.4 0 1.976.052 2.75.052.747 0 1.815-.052 2.803-.052 3.789 0 4.483 1.82 4.483 3.173 0 1.561-.774 4.004-4.563 4.004-.667 0-1.201-.053-1.683-.26v3.482c0 .572.32.703 1.176.832l.535.078c.106.026.187.053.187.156v.546l-.026.052s-2.136-.052-2.963-.052c-.748 0-2.75.052-2.75.052l-.027-.052v-.546c0-.104.054-.13.16-.156l.561-.078c.828-.104 1.095-.338 1.095-.832l-.003-8.735Zm2.056 4.525c.534.21 1.201.234 1.735.234 1.603 0 2.374-.938 2.374-2.938 0-2.236-1.04-2.73-2.507-2.73-1.283 0-1.603.234-1.603.91l.001 4.524Zm10.843 5.824c-.801 0-2.642.053-2.642.053l-.028-.053v-.572c0-.05.028-.129.16-.129l.616-.053c.828-.078 1.068-.598 1.068-1.117v-8.58c0-.6-.321-.703-1.068-.754l-.616-.054c-.16-.024-.16-.077-.16-.104v-.599l.028-.052s2.081.052 2.882.052h3.925c.8 0 2.697-.052 2.697-.052l.054.052c.026 1.118.213 2.134.4 3.121l-.666.104c-.292-.963-.8-2.34-2.508-2.34h-2.136c-.507 0-.774.182-.774.623v3.771h2.001c.749 0 .935-.312 1.042-.832l.16-.546c0-.078.054-.13.16-.13h.453c.054 0 .054.026.054.077-.054.572-.16 1.301-.16 1.925 0 .65.107 1.196.16 1.794l-.054.053h-.453c-.133 0-.188-.053-.188-.13l-.134-.572c-.106-.52-.347-.807-1.043-.807h-2v3.98c0 .492.292.986.774.986h2.536c1.362 0 2.11-.832 2.43-2.185l.666.078-.535 2.99-.053.051s-1.575-.052-2.376-.052l-4.672.003Zm10.04-.7.614-.054c.802-.078 1.069-.312 1.069-1.117v-8.58c0-.678-.19-.678-1.07-.754l-.584-.054c-.107 0-.19-.052-.19-.13v-.572l.026-.052s2.35.052 2.832.052c.505 0 2.83-.052 3.524-.052 4.458 0 6.648 2.704 6.648 6.162 0 4.551-3.31 5.901-6.273 5.901-2.136 0-3.07-.052-3.897-.052-.802 0-2.83.052-2.83.052l-.027-.052v-.546c-.002-.075.052-.153.158-.153Zm5.954 0c2.936 0 4.593-1.066 4.593-4.708 0-2.703-.615-5.85-5.1-5.85-1.041 0-1.709.155-1.709.807v8.58c0 .726.186 1.17 2.216 1.17Zm14.039-1.78c0 .832.32 1.323 1.34 1.437l.671.077c.096 0 .192.074.192.225v.794l-.032.078s-2.426-.078-3.415-.078c-.895 0-3.385.078-3.385.078l-.065-.078v-.794c0-.151.096-.225.224-.225l.64-.077c1.052-.114 1.373-.719 1.373-1.438V2.388c0-.83-.385-1.06-1.373-1.17l-.64-.08c-.128 0-.224-.034-.224-.15V.116l.032-.075s2.523.075 3.51.075c.862 0 3.322-.075 3.322-.075l.03.075v.832c0 .114-.065.19-.191.19l-.67.076c-.99.112-1.342.416-1.342 1.174l.003 12.594Z"/></svg>
